img/svg/buttons-icons/plus-circle-ico.svg

<svg width="16" height="16" viewBox="0 0 16 16" fill="none" xmlns="http://www.w3.org/2000/svg">
<path fill-rule="evenodd" clip-rule="evenodd" d="M2.01135 12.3502C1.71606 12.5291 1.33179 12.4347 1.15295 12.1394C0.398682 10.8943 0 9.46289 0 8C0 5.86316 0.832153 3.85413 2.34314 2.34314C3.85413 0.832153 5.86316 0 8 0C10.1368 0 12.1459 0.832153 13.6569 2.34314C15.1678 3.85413 16 5.86316 16 8C16 10.1368 15.1678 12.1459 13.6569 13.6569C12.1459 15.1678 10.1368 16 8 16C6.4209 16 4.88513 15.5312 3.55884 14.6447C3.27197 14.4528 3.19482 14.0646 3.38672 13.7777C3.57849 13.4907 3.96667 13.4136 4.25366 13.6055C5.37366 14.3542 6.66907 14.75 8 14.75C11.7219 14.75 14.75 11.7219 14.75 8C14.75 4.27808 11.7219 1.25 8 1.25C4.27808 1.25 1.25 4.27808 1.25 8C1.25 9.23462 1.58618 10.442 2.22205 11.4918C2.401 11.787 2.30664 12.1713 2.01135 12.3502ZM7.40942 8.62444V11.4375C7.40942 11.7827 7.68924 12.0625 8.03442 12.0625C8.37961 12.0625 8.65942 11.7827 8.65942 11.4375V8.62444H11.4719C11.8171 8.62444 12.0969 8.34462 12.0969 7.99944C12.0969 7.65425 11.8171 7.37444 11.4719 7.37444H8.65942V4.53125C8.65942 4.18606 8.37961 3.90625 8.03442 3.90625C7.68924 3.90625 7.40942 4.18606 7.40942 4.53125V7.37444H4.59692C4.25174 7.37444 3.97192 7.65425 3.97192 7.99944C3.97192 8.34462 4.25174 8.62444 4.59692 8.62444H7.40942Z" fill="#4C51CC"/>
</svg>

<svg width="16" height="16" fill="none" xmlns="http://www.w3.org/2000/svg"><path fill-rule="evenodd" clip-rule="evenodd" d="M2.011 12.35a.625.625 0 01-.858-.21A7.987 7.987 0 010 8c0-2.137.832-4.146 2.343-5.657A7.948 7.948 0 018 0c2.137 0 4.146.832 5.657 2.343A7.948 7.948 0 0116 8a7.948 7.948 0 01-2.343 5.657A7.948 7.948 0 018 16a7.97 7.97 0 01-4.441-1.355.625.625 0 01.695-1.04A6.723 6.723 0 008 14.75 6.758 6.758 0 0014.75 8 6.758 6.758 0 008 1.25 6.758 6.758 0 001.25 8c0 1.235.336 2.442.972 3.492a.625.625 0 01-.21.858zM7.41 8.624v2.813a.625.625 0 101.25 0V8.624h2.813a.625.625 0 100-1.25H8.659V4.531a.625.625 0 10-1.25 0v2.843H4.597a.625.625 0 100 1.25h2.812z" fill="#4C51CC"/></svg>
